dist/logos/PreSustainability.svg

<svg width="116" height="63" viewBox="0 0 116 63" fill="none"
    xmlns="http://www.w3.org/2000/svg">
    <path d="M5.84523 62.7372H0.00218027V43.3504C-0.0385362 38.185 0.491147 33.0309 1.5816 27.9817C3.26741 20.461 6.22168 14.5362 10.3625 10.3625C14.528 6.22168 20.4529 3.26742 27.9735 1.5816C33.0227 0.491147 38.1768 -0.0385363 43.3422 0.00218027H49.6272V6.29533C49.6757 11.4607 49.1487 16.6154 48.056 21.664C46.3701 29.1847 43.4159 35.1096 39.275 39.275C32.9573 45.5436 22.7688 49.2917 12.0238 49.2917V43.4568C16.3363 43.4514 20.6187 42.7382 24.7001 41.3455C28.6018 40.0732 32.1716 37.9487 35.1505 35.126C37.7938 32.4581 43.9069 24.3319 43.8005 6.29533V5.82068H42.8758C25.1584 5.82068 17.1385 11.852 14.5034 14.4707C11.8683 17.0894 5.73885 25.2893 5.84523 43.3259V62.7372Z" fill="white"></path>
    <path d="M74.6109 32.3442C74.6109 34.9684 73.7925 36.9734 72.1558 38.3591C70.5191 39.7449 68.1814 40.4432 65.1425 40.4541H62.933V49.1123H57.7773V24.7581H65.5517C68.5087 24.7581 70.7537 25.3936 72.2868 26.6648C73.8416 27.9415 74.6109 29.8319 74.6109 32.3442ZM62.9575 36.215H64.6515C65.9121 36.3035 67.1666 35.9726 68.2195 35.2739C68.6192 34.943 68.9344 34.5219 69.1393 34.0453C69.3442 33.5686 69.4329 33.0501 69.398 32.5324C69.4342 32.0471 69.3653 31.5597 69.1958 31.1035C69.0263 30.6473 68.7603 30.2331 68.416 29.8891C67.5169 29.2364 66.4133 28.9285 65.3062 29.0217H62.9657L62.9575 36.215Z" fill="white"></path>
    <path d="M83.699 39.7667V49.1123H78.5352V24.7581H85.6057C88.9119 24.7581 91.367 25.3609 92.9709 26.5666C94.5749 27.7723 95.3687 29.6027 95.3523 32.0578C95.3716 33.424 94.9592 34.7614 94.1739 35.8795C93.3215 37.0448 92.163 37.9512 90.8268 38.4982C94.4931 43.9539 96.8799 47.5001 97.9874 49.1368H92.259L86.4241 39.7667H83.699ZM83.699 35.5685H85.3357C86.596 35.6627 87.8557 35.3777 88.9528 34.7502C89.3475 34.4565 89.6612 34.0675 89.8645 33.6194C90.0678 33.1714 90.1539 32.6791 90.1149 32.1887C90.158 31.7104 90.0703 31.2294 89.8613 30.797C89.6524 30.3646 89.3298 29.997 88.9283 29.7337C87.7849 29.1657 86.5113 28.9115 85.2375 28.9971H83.6744L83.699 35.5685Z" fill="white"></path>
    <path d="M108.391 49.4454C105.395 49.4454 103.047 48.6271 101.361 46.9904C99.6749 45.3537 98.832 42.9968 98.832 39.9607C98.832 36.9246 99.6504 34.4286 101.173 32.7265C102.004 31.8594 103.013 31.1823 104.13 30.7416C105.247 30.3009 106.447 30.107 107.646 30.1732C108.769 30.1042 109.895 30.2677 110.953 30.6535C112.01 31.0393 112.977 31.6391 113.792 32.4155C114.551 33.2549 115.137 34.2371 115.513 35.3049C115.89 36.3726 116.05 37.5047 115.985 38.635V41.09H103.98C103.962 42.3273 104.412 43.5256 105.24 44.4453C105.687 44.8677 106.217 45.1938 106.795 45.4035C107.374 45.6132 107.989 45.7021 108.603 45.6646C109.672 45.6677 110.737 45.5496 111.779 45.3128C112.86 45.0506 113.911 44.6748 114.913 44.1916V48.1279C114.008 48.5743 113.051 48.9069 112.065 49.1181C110.854 49.3516 109.623 49.4612 108.391 49.4454ZM107.695 33.7494C107.223 33.7269 106.752 33.8066 106.314 33.9832C105.877 34.1598 105.482 34.429 105.158 34.7724C104.496 35.601 104.128 36.6255 104.11 37.6857H111.238C111.283 36.6265 110.933 35.5883 110.256 34.7724C109.927 34.4288 109.528 34.1597 109.086 33.9833C108.645 33.8068 108.17 33.7271 107.695 33.7494ZM104.757 28.4383V27.9882C106.178 26.4088 107.488 24.7326 108.677 22.9717H114.405V23.3399C113.827 23.9237 112.842 24.783 111.451 25.9178C110.06 27.0525 108.969 27.8982 108.178 28.4547L104.757 28.4383Z" fill="white"></path>
</svg>

<?xml version="1.0" encoding="UTF-8"?>
<svg id="Layer_1" data-name="Layer 1" xmlns="http://www.w3.org/2000/svg" viewBox="0 0 116 62.74">
  <defs>
    <style>
      .cls-1 {
        stroke-width: 0px;
      }
    </style>
  </defs>
  <path class="cls-1" d="M5.85,62.74H0v-19.39c-.04-5.17.49-10.32,1.58-15.37,1.69-7.52,4.64-13.45,8.78-17.62C14.53,6.22,20.45,3.27,27.97,1.58,33.02.49,38.18-.04,43.34,0h6.28v6.29c.05,5.17-.48,10.32-1.57,15.37-1.69,7.52-4.64,13.45-8.78,17.61-6.32,6.27-16.51,10.02-27.25,10.02v-5.83c4.31,0,8.59-.72,12.68-2.11,3.9-1.27,7.47-3.4,10.45-6.22,2.64-2.67,8.76-10.79,8.65-28.83v-.47h-.92c-17.72,0-25.74,6.03-28.37,8.65-2.64,2.62-8.76,10.82-8.66,28.86v19.41Z"/>
  <path class="cls-1" d="M74.61,32.34c0,2.62-.82,4.63-2.46,6.01-1.64,1.39-3.97,2.08-7.01,2.1h-2.21v8.66h-5.16v-24.35h7.77c2.96,0,5.2.64,6.74,1.91,1.55,1.28,2.32,3.17,2.32,5.68ZM62.96,36.22h1.69c1.26.09,2.52-.24,3.57-.94.4-.33.71-.75.92-1.23.2-.48.29-1,.26-1.51.04-.49-.03-.97-.2-1.43s-.44-.87-.78-1.21c-.9-.65-2-.96-3.11-.87h-2.34v7.19Z"/>
  <path class="cls-1" d="M83.7,39.77v9.35h-5.16v-24.35h7.07c3.31,0,5.76.6,7.37,1.81,1.6,1.21,2.4,3.04,2.38,5.49.02,1.37-.39,2.7-1.18,3.82-.85,1.17-2.01,2.07-3.35,2.62,3.67,5.46,6.05,9,7.16,10.64h-5.73l-5.83-9.37h-2.73ZM83.7,35.57h1.64c1.26.09,2.52-.19,3.62-.82.39-.29.71-.68.91-1.13.2-.45.29-.94.25-1.43.04-.48-.04-.96-.25-1.39-.21-.43-.53-.8-.93-1.06-1.14-.57-2.42-.82-3.69-.74h-1.56l.02,6.57Z"/>
  <path class="cls-1" d="M108.39,49.45c-3,0-5.34-.82-7.03-2.46-1.69-1.64-2.53-3.99-2.53-7.03s.82-5.53,2.34-7.23c.83-.87,1.84-1.54,2.96-1.98,1.12-.44,2.32-.63,3.52-.57,1.12-.07,2.25.09,3.31.48,1.06.39,2.02.99,2.84,1.76.76.84,1.35,1.82,1.72,2.89.38,1.07.54,2.2.47,3.33v2.46h-12c-.02,1.24.43,2.44,1.26,3.36.45.42.98.75,1.56.96.58.21,1.19.3,1.81.26,1.07,0,2.13-.12,3.18-.35,1.08-.26,2.13-.64,3.13-1.12v3.94c-.9.45-1.86.78-2.85.99-1.21.23-2.44.34-3.67.33ZM107.69,33.75c-.47-.02-.94.06-1.38.23-.44.18-.83.45-1.16.79-.66.83-1.03,1.85-1.05,2.91h7.13c.04-1.06-.31-2.1-.98-2.91-.33-.34-.73-.61-1.17-.79-.44-.18-.92-.26-1.39-.23ZM104.76,28.44v-.45c1.42-1.58,2.73-3.26,3.92-5.02h5.73v.37c-.58.58-1.56,1.44-2.95,2.58-1.39,1.13-2.48,1.98-3.27,2.54l-3.42-.02Z"/>
</svg>
